overrides/.icons/dmg/necr.svg

<?xml version="1.0" encoding="UTF-8" standalone="no"?>
<svg
   viewBox="0 0 24 24"
   version="1.1"
   id="svg1"
   sodipodi:docname="necrotic.svg"
   inkscape:version="1.3.2 (091e20e, 2023-11-25, custom)"
   xml:space="preserve"
   xmlns:inkscape="http://www.inkscape.org/namespaces/inkscape"
   xmlns:sodipodi="http://sodipodi.sourceforge.net/DTD/sodipodi-0.dtd"
   xmlns="http://www.w3.org/2000/svg"
   xmlns:svg="http://www.w3.org/2000/svg"><defs
     id="defs1"><inkscape:path-effect
       effect="fillet_chamfer"
       id="path-effect16"
       is_visible="true"
       lpeversion="1"
       nodesatellites_param="F,0,1,1,0,1.4522319,0,1 @ F,0,1,1,0,1.4522319,0,1 @ F,0,0,1,0,1.4522319,0,1"
       radius="0"
       unit="px"
       method="auto"
       mode="F"
       chamfer_steps="1"
       flexible="false"
       use_knot_distance="true"
       apply_no_radius="true"
       apply_with_radius="true"
       only_selected="false"
       hide_knots="false" /><inkscape:path-effect
       effect="fillet_chamfer"
       id="path-effect1"
       is_visible="true"
       lpeversion="1"
       nodesatellites_param="F,0,0,1,0,0,0,1 @ F,0,0,1,0,0,0,1 @ F,0,0,1,0,0,0,1"
       radius="0"
       unit="px"
       method="auto"
       mode="F"
       chamfer_steps="1"
       flexible="false"
       use_knot_distance="true"
       apply_no_radius="true"
       apply_with_radius="true"
       only_selected="false"
       hide_knots="false" /><linearGradient
       id="swatch1"
       inkscape:swatch="solid"><stop
         style="stop-color:#ef5552;stop-opacity:1;"
         offset="0"
         id="stop1" /></linearGradient><inkscape:path-effect
       effect="fillet_chamfer"
       id="path-effect15"
       is_visible="true"
       lpeversion="1"
       nodesatellites_param="F,0,0,1,0,0.48222331,0,1 @ F,0,1,1,0,0.48222331,0,1 @ F,0,1,1,0,0.48222331,0,1"
       radius="0"
       unit="px"
       method="auto"
       mode="F"
       chamfer_steps="1"
       flexible="false"
       use_knot_distance="true"
       apply_no_radius="true"
       apply_with_radius="true"
       only_selected="false"
       hide_knots="false" /><inkscape:path-effect
       effect="fillet_chamfer"
       id="path-effect14"
       is_visible="true"
       lpeversion="1"
       nodesatellites_param="F,0,0,1,0,0,0,1 @ F,0,0,1,0,0,0,1 @ F,0,0,1,0,0,0,1"
       radius="0"
       unit="px"
       method="auto"
       mode="F"
       chamfer_steps="1"
       flexible="false"
       use_knot_distance="true"
       apply_no_radius="true"
       apply_with_radius="true"
       only_selected="false"
       hide_knots="false" /><inkscape:path-effect
       effect="fillet_chamfer"
       id="path-effect13"
       is_visible="true"
       lpeversion="1"
       nodesatellites_param="F,0,1,1,0,1.0728753,0,1 @ F,0,1,1,0,1.0728753,0,1 @ F,0,1,1,0,1.0728753,0,1 @ F,0,1,1,0,1.0728753,0,1 @ F,0,0,1,0,1.0728753,0,1 @ F,0,1,1,0,1.0728753,0,1"
       radius="0"
       unit="px"
       method="auto"
       mode="F"
       chamfer_steps="1"
       flexible="false"
       use_knot_distance="true"
       apply_no_radius="true"
       apply_with_radius="true"
       only_selected="false"
       hide_knots="false" /><inkscape:path-effect
       effect="fillet_chamfer"
       id="path-effect12"
       is_visible="true"
       lpeversion="1"
       nodesatellites_param="F,0,0,1,0,0,0,1 @ F,0,0,1,0,0,0,1 @ F,0,0,1,0,0,0,1 @ F,0,0,1,0,0,0,1 @ F,0,0,1,0,0,0,1 @ F,0,0,1,0,0,0,1"
       radius="0"
       unit="px"
       method="auto"
       mode="F"
       chamfer_steps="1"
       flexible="false"
       use_knot_distance="true"
       apply_no_radius="true"
       apply_with_radius="true"
       only_selected="false"
       hide_knots="false" /><inkscape:path-effect
       effect="fillet_chamfer"
       id="path-effect11"
       is_visible="true"
       lpeversion="1"
       nodesatellites_param="F,0,0,1,0,0,0,1 @ F,0,0,1,0,0,0,1 @ F,0,0,1,0,0,0,1 @ F,0,0,1,0,0,0,1 @ F,0,0,1,0,0,0,1 @ F,0,0,1,0,0,0,1"
       radius="0"
       unit="px"
       method="auto"
       mode="F"
       chamfer_steps="1"
       flexible="false"
       use_knot_distance="true"
       apply_no_radius="true"
       apply_with_radius="true"
       only_selected="false"
       hide_knots="false" /><inkscape:path-effect
       effect="fillet_chamfer"
       id="path-effect10"
       is_visible="true"
       lpeversion="1"
       nodesatellites_param="F,0,0,1,0,0,0,1 @ F,0,0,1,0,0,0,1 @ F,0,0,1,0,0,0,1 @ F,0,0,1,0,0,0,1 @ F,0,0,1,0,0,0,1 @ F,0,0,1,0,0,0,1"
       radius="0"
       unit="px"
       method="auto"
       mode="F"
       chamfer_steps="1"
       flexible="false"
       use_knot_distance="true"
       apply_no_radius="true"
       apply_with_radius="true"
       only_selected="false"
       hide_knots="false" /><inkscape:path-effect
       effect="fillet_chamfer"
       id="path-effect9"
       is_visible="true"
       lpeversion="1"
       nodesatellites_param="F,0,0,1,0,0,0,1 @ F,0,0,1,0,0,0,1 @ F,0,0,1,0,0,0,1 @ F,0,0,1,0,0,0,1 @ F,0,0,1,0,0,0,1 @ F,0,0,1,0,0,0,1"
       radius="0"
       unit="px"
       method="auto"
       mode="F"
       chamfer_steps="1"
       flexible="false"
       use_knot_distance="true"
       apply_no_radius="true"
       apply_with_radius="true"
       only_selected="false"
       hide_knots="false" /><inkscape:path-effect
       effect="fillet_chamfer"
       id="path-effect8"
       is_visible="true"
       lpeversion="1"
       nodesatellites_param="F,0,0,1,0,0,0,1 @ F,0,0,1,0,0,0,1 @ F,0,0,1,0,0,0,1 @ F,0,0,1,0,0,0,1 @ F,0,0,1,0,0,0,1 @ F,0,0,1,0,0,0,1"
       radius="0"
       unit="px"
       method="auto"
       mode="F"
       chamfer_steps="1"
       flexible="false"
       use_knot_distance="true"
       apply_no_radius="true"
       apply_with_radius="true"
       only_selected="false"
       hide_knots="false" /><inkscape:path-effect
       effect="fillet_chamfer"
       id="path-effect7"
       is_visible="true"
       lpeversion="1"
       nodesatellites_param="F,0,0,1,0,0,0,1 @ F,0,0,1,0,0,0,1 @ F,0,0,1,0,0,0,1 @ F,0,0,1,0,0,0,1 @ F,0,0,1,0,0,0,1 @ F,0,0,1,0,0,0,1"
       radius="0"
       unit="px"
       method="auto"
       mode="F"
       chamfer_steps="1"
       flexible="false"
       use_knot_distance="true"
       apply_no_radius="true"
       apply_with_radius="true"
       only_selected="false"
       hide_knots="false" /><inkscape:path-effect
       effect="fillet_chamfer"
       id="path-effect6"
       is_visible="true"
       lpeversion="1"
       nodesatellites_param="F,0,0,1,0,0,0,1 @ F,0,0,1,0,0,0,1 @ F,0,0,1,0,0,0,1 @ F,0,0,1,0,0,0,1 @ F,0,0,1,0,0,0,1 @ F,0,0,1,0,0,0,1"
       radius="0"
       unit="px"
       method="auto"
       mode="F"
       chamfer_steps="1"
       flexible="false"
       use_knot_distance="true"
       apply_no_radius="true"
       apply_with_radius="true"
       only_selected="false"
       hide_knots="false" /><inkscape:path-effect
       effect="fillet_chamfer"
       id="path-effect5"
       is_visible="true"
       lpeversion="1"
       nodesatellites_param="F,0,0,1,0,0,0,1 @ F,0,0,1,0,0,0,1 @ F,0,0,1,0,0,0,1 @ F,0,0,1,0,0,0,1 @ F,0,0,1,0,0,0,1 @ F,0,0,1,0,0,0,1"
       radius="0"
       unit="px"
       method="auto"
       mode="F"
       chamfer_steps="1"
       flexible="false"
       use_knot_distance="true"
       apply_no_radius="true"
       apply_with_radius="true"
       only_selected="false"
       hide_knots="false" /><inkscape:path-effect
       effect="fillet_chamfer"
       id="path-effect4"
       is_visible="true"
       lpeversion="1"
       nodesatellites_param="F,0,0,1,0,0,0,1 @ F,0,0,1,0,0,0,1 @ F,0,0,1,0,0,0,1 @ F,0,0,1,0,0,0,1 @ F,0,0,1,0,1.1276705,0,1 @ F,0,0,1,0,1.2418038,0,1"
       radius="0"
       unit="px"
       method="auto"
       mode="F"
       chamfer_steps="1"
       flexible="false"
       use_knot_distance="true"
       apply_no_radius="true"
       apply_with_radius="true"
       only_selected="false"
       hide_knots="false" /><inkscape:path-effect
       effect="fillet_chamfer"
       id="path-effect3"
       is_visible="true"
       lpeversion="1"
       nodesatellites_param="F,0,0,1,0,0,0,1 @ F,0,0,1,0,0,0,1 @ F,0,0,1,0,0,0,1 @ F,0,0,1,0,0,0,1 @ F,0,0,1,0,0,0,1 @ F,0,0,1,0,0,0,1"
       radius="0"
       unit="px"
       method="auto"
       mode="F"
       chamfer_steps="1"
       flexible="false"
       use_knot_distance="true"
       apply_no_radius="true"
       apply_with_radius="true"
       only_selected="false"
       hide_knots="false" /><inkscape:path-effect
       effect="fillet_chamfer"
       id="path-effect2"
       is_visible="true"
       lpeversion="1"
       nodesatellites_param="F,0,0,1,0,0,0,1 @ F,0,0,1,0,0,0,1 @ F,0,0,1,0,0,0,1 @ F,0,0,1,0,0,0,1 @ F,0,0,1,0,0,0,1 @ F,0,0,1,0,0,0,1"
       radius="0"
       unit="px"
       method="auto"
       mode="F"
       chamfer_steps="1"
       flexible="false"
       use_knot_distance="true"
       apply_no_radius="true"
       apply_with_radius="true"
       only_selected="false"
       hide_knots="false" /></defs><sodipodi:namedview
     id="namedview1"
     pagecolor="#ffffff"
     bordercolor="#666666"
     borderopacity="1.0"
     inkscape:showpageshadow="2"
     inkscape:pageopacity="0.0"
     inkscape:pagecheckerboard="0"
     inkscape:deskcolor="#d1d1d1"
     inkscape:zoom="11.313709"
     inkscape:cx="2.298097"
     inkscape:cy="11.004349"
     inkscape:window-width="1360"
     inkscape:window-height="715"
     inkscape:window-x="-8"
     inkscape:window-y="-8"
     inkscape:window-maximized="1"
     inkscape:current-layer="svg1" /><path
     id="path6" /><path
     id="path1-4"
     style="stroke-width:1"
     d="m 20.25385,2 c 0.488325,0.8067842 0.693405,1.7330906 0.782754,2.6116668 0.257439,2.5355522 -0.844388,5.088255 -2.806735,6.7130532 l -0.0012,-0.0037 c -0.512822,0.421523 -1.082697,0.781817 -1.703423,1.059824 -0.09649,0.04196 -0.193283,0.08395 -0.283281,0.173946 -0.152308,0.152309 -0.187796,0.392247 -0.106853,0.58396 0.08755,0.226015 0.291489,0.349035 0.531775,0.36777 0.0718,0.0063 0.144348,-0.0013 0.213705,-0.02236 0.603437,-0.07532 1.179747,-0.280805 1.703416,-0.580227 v 0.01 c 0.994235,-0.575 1.792568,-1.499108 2.195441,-2.578136 0.196802,2.079868 -1.054907,3.998181 -2.368144,5.705411 -0.134389,0.105992 -0.226679,0.231131 -0.364213,0.33398 l -0.144902,0.134318 c -0.172282,0.182033 -0.0462,0.06853 -0.3219,0.358692 -0.43158,0.450288 -0.9641,0.982344 -1.400459,1.421874 -1.592799,1.589626 -3.873874,2.279449 -6.080636,1.838853 L 8.2280025,22 7.1681767,20.940176 8.7585367,19.349816 7.6974692,18.288748 6.1071109,19.879108 5.047286,18.819284 6.6376443,17.228924 5.5778185,16.169099 3.9874603,17.759458 2.9263927,16.69839 4.8025198,14.822264 C 4.3678247,12.638181 5.0472958,10.338189 6.6376443,8.7478399 6.9794327,8.406934 7.2670612,8.0924726 7.6960309,7.6974963 8.2430283,7.1226668 8.0594843,7.2435808 8.408758,6.9169266 L 9.0793714,6.2325263 C 9.7823492,5.733331 9.6227385,5.9069196 10.379858,5.5870008 l 0.269717,-0.093182 c 0.461605,-0.175311 1.396534,-0.3454053 1.396534,-0.3454052 0.364469,-0.050915 0.734905,-0.040716 1.092128,-0.043486 0.872172,0.041292 1.688324,0.2620596 2.560727,0.2621613 C 17.725365,5.3719682 19.620645,3.9283175 20.25385,2 Z m -4.489037,6.4645594 c -0.392586,0.133565 -0.797277,0.1412569 -1.162949,0.303162 -1.239605,0.3806164 -1.528851,-0.2407754 -3.118839,-0.1608781 -0.194485,0.046233 -0.202272,0.037324 -0.611219,0.3002413 -0.299347,0.2830737 -0.292614,0.5329641 -0.256309,0.9578505 0.106459,0.7853729 0.183849,1.1522989 0.272591,1.7911089 0.02721,0.750859 -0.0041,1.08999 0.316681,1.61742 0.516624,0.576913 0.852286,0.949009 1.533394,0.94372 -0.510686,-0.89838 -0.491644,-2.099624 -0.01863,-2.858919 0.43796,-0.669722 1.114037,-0.908585 1.735723,-1.353047 0.594101,-0.4305033 1.015913,-0.8789238 1.309561,-1.5406564 z M 13.62777,15.708145 c -0.60038,-0.62623 -1.593593,-0.650645 -2.224017,-0.05467 l -0.03236,0.02978 c -0.614081,0.613261 -0.617963,1.607217 -0.0087,2.22526 0.6091,0.618291 1.603135,0.62879 2.225259,0.02361 0.621984,-0.604529 0.639738,-1.597642 0.03976,-2.224017 z M 9.2667092,11.347084 C 8.6663278,10.720852 7.6731154,10.696439 7.0426914,11.292417 l -0.031067,0.03107 c -0.6140791,0.613262 -0.6179636,1.607216 -0.00871,2.225259 0.6091004,0.618292 1.6031351,0.62879 2.2252604,0.02361 0.622456,-0.605007 0.6396552,-1.599068 0.038516,-2.225261 z m 0.5106533,3.803194 -2.5483022,0.682115 1.8661875,1.866187 z"
     sodipodi:nodetypes="cccccsccccccccccccccccccccccccccccccccccccccccccccccccccccccccccccccc" /></svg>

<?xml version="1.0" encoding="UTF-8"?>
<svg id="svg1" version="1.1" viewBox="0 0 24 24" xml:space="preserve" xmlns="http://www.w3.org/2000/svg"><path id="path1-4" d="m20.254 2c0.48832 0.80678 0.6934 1.7331 0.78275 2.6117 0.25744 2.5356-0.84439 5.0883-2.8067 6.7131l-0.0012-0.0037c-0.51282 0.42152-1.0827 0.78182-1.7034 1.0598-0.09649 0.04196-0.19328 0.08395-0.28328 0.17395-0.15231 0.15231-0.1878 0.39225-0.10685 0.58396 0.08755 0.22602 0.29149 0.34904 0.53178 0.36777 0.0718 0.0063 0.14435-0.0013 0.2137-0.02236 0.60344-0.07532 1.1797-0.2808 1.7034-0.58023v0.01c0.99424-0.575 1.7926-1.4991 2.1954-2.5781 0.1968 2.0799-1.0549 3.9982-2.3681 5.7054-0.13439 0.10599-0.22668 0.23113-0.36421 0.33398l-0.1449 0.13432c-0.17228 0.18203-0.0462 0.06853-0.3219 0.35869-0.43158 0.45029-0.9641 0.98234-1.4005 1.4219-1.5928 1.5896-3.8739 2.2794-6.0806 1.8389l-1.8712 1.8711-1.0598-1.0598 1.5904-1.5904-1.0611-1.0611-1.5904 1.5904-1.0598-1.0598 1.5904-1.5904-1.0598-1.0598-1.5904 1.5904-1.0611-1.0611 1.8761-1.8761c-0.4347-2.1841 0.24478-4.4841 1.8351-6.0744 0.34179-0.34091 0.62942-0.65537 1.0584-1.0503 0.547-0.57483 0.36345-0.45392 0.71273-0.78057l0.67061-0.6844c0.70298-0.4992 0.54337-0.32561 1.3005-0.64553l0.26972-0.093182c0.4616-0.17531 1.3965-0.34541 1.3965-0.34541 0.36447-0.050915 0.7349-0.040716 1.0921-0.043486 0.87217 0.041292 1.6883 0.26206 2.5607 0.26216 2.0264 0.0048793 3.9217-1.4388 4.5549-3.3671zm-4.489 6.4646c-0.39259 0.13356-0.79728 0.14126-1.1629 0.30316-1.2396 0.38062-1.5289-0.24078-3.1188-0.16088-0.19448 0.046233-0.20227 0.037324-0.61122 0.30024-0.29935 0.28307-0.29261 0.53296-0.25631 0.95785 0.10646 0.78537 0.18385 1.1523 0.27259 1.7911 0.02721 0.75086-0.0041 1.09 0.31668 1.6174 0.51662 0.57691 0.85229 0.94901 1.5334 0.94372-0.51069-0.89838-0.49164-2.0996-0.01863-2.8589 0.43796-0.66972 1.114-0.90858 1.7357-1.353 0.5941-0.4305 1.0159-0.87892 1.3096-1.5407zm-2.137 7.2436c-0.60038-0.62623-1.5936-0.65064-2.224-0.05467l-0.03236 0.02978c-0.61408 0.61326-0.61796 1.6072-0.0087 2.2253 0.6091 0.61829 1.6031 0.62879 2.2253 0.02361 0.62198-0.60453 0.63974-1.5976 0.03976-2.224zm-4.3611-4.3611c-0.60038-0.62623-1.5936-0.65064-2.224-0.054667l-0.031067 0.03107c-0.61408 0.61326-0.61796 1.6072-0.00871 2.2253 0.6091 0.61829 1.6031 0.62879 2.2253 0.02361 0.62246-0.60501 0.63966-1.5991 0.038516-2.2253zm0.51065 3.8032-2.5483 0.68212 1.8662 1.8662z"/></svg>
